svg/u1f4e0.svg

<svg viewBox="0 0 128 128" xmlns="http://www.w3.org/2000/svg">
  <path d="m108.39 48.19h-60.67c-1.97 0-3.57-1.6-3.57-3.57v-37.02c0-1.97 1.6-3.57 3.57-3.57h60.67c1.97 0 3.57 1.6 3.57 3.57v37.02c0 1.97-1.6 3.57-3.57 3.57z" fill="#F5F5F5"/>
  <g opacity=".2">
    <path d="m108.39 7.03c0.31 0 0.57 0.25 0.57 0.57v37.02c0 0.31-0.25 0.57-0.57 0.57h-60.67c-0.31 0-0.57-0.25-0.57-0.57v-37.02c0-0.31 0.25-0.57 0.57-0.57h60.67m0-3h-60.67c-1.97 0-3.57 1.6-3.57 3.57v37.02c0 1.97 1.6 3.57 3.57 3.57h60.67c1.97 0 3.57-1.6 3.57-3.57v-37.02c0-1.97-1.6-3.57-3.57-3.57z" fill="#424242"/>
  </g>
  <linearGradient id="c" gradientUnits="userSpaceOnUse" x1="63.991" x2="63.991" y1="123.82" y2="43.733">
    <stop offset="0" stop-color="#212121"/>
    <stop offset=".3525" stop-color="#3D3D3D"/>
    <stop offset=".7585" stop-color="#575757"/>
    <stop offset="1" stop-color="#616161"/>
  </linearGradient>
  <path d="m114.88 123.82h-101.78c-4.89 0-8.89-4-8.89-8.89v-62.3c0-4.89 4-8.89 8.89-8.89h101.78c4.89 0 8.89 4 8.89 8.89v62.3c0 4.89-4 8.89-8.89 8.89z" fill="url(#c)"/>
  <g opacity=".2">
    <path d="m114.88 46.73c3.25 0 5.89 2.64 5.89 5.89v62.3c0 3.25-2.64 5.89-5.89 5.89h-101.78c-3.25 0-5.89-2.64-5.89-5.89v-62.3c0-3.25 2.64-5.89 5.89-5.89h101.78m0-3h-101.78c-4.89 0-8.89 4-8.89 8.89v62.3c0 4.89 4 8.89 8.89 8.89h101.78c4.89 0 8.89-4 8.89-8.89v-62.3c0-4.89-4-8.89-8.89-8.89z" fill="#eee"/>
  </g>
  <linearGradient id="b" gradientUnits="userSpaceOnUse" x1="27.98" x2="27.98" y1="115" y2="35">
    <stop offset="0" stop-color="#212121"/>
    <stop offset=".716" stop-color="#4E4E4E"/>
    <stop offset="1" stop-color="#616161"/>
  </linearGradient>
  <path d="m27.98 115c-6.57 0-11.95-5.38-11.95-11.95v-56.1c0-6.57 5.38-11.95 11.95-11.95s11.95 5.38 11.95 11.95v56.09c0 6.58-5.38 11.96-11.95 11.96z" fill="url(#b)"/>
  <g opacity=".2">
    <path d="m27.98 38c4.94 0 8.95 4.02 8.95 8.95v56.09c0 4.94-4.02 8.95-8.95 8.95-4.94 0-8.95-4.02-8.95-8.95v-56.09c0-4.93 4.01-8.95 8.95-8.95m0-3c-6.57 0-11.95 5.38-11.95 11.95v56.09c0 6.57 5.38 11.95 11.95 11.95s11.95-5.38 11.95-11.95v-56.09c0-6.57-5.38-11.95-11.95-11.95z" fill="#eee"/>
  </g>
  <linearGradient id="a" gradientUnits="userSpaceOnUse" x1="73.941" x2="73.941" y1="63.88" y2="51.88">
    <stop offset=".0027304" stop-color="#7CB342"/>
    <stop offset="1" stop-color="#558B2F"/>
  </linearGradient>
  <path d="m93.95 63.88h-40.02c-3.3 0-6-2.7-6-6v-0.01c0-3.3 2.7-6 6-6h40.01c3.3 0 6 2.7 6 6v0.01c0 3.3-2.69 6-5.99 6z" fill="url(#a)"/>
  <circle cx="52.34" cy="74.38" fill="#BDBDBD" r="4.4"/>
  <circle cx="81.79" cy="74.38" fill="#BDBDBD" r="4.4"/>
  <circle cx="67.31" cy="74.38" fill="#BDBDBD" r="4.4"/>
  <circle cx="52.34" cy="86.05" fill="#BDBDBD" r="4.4"/>
  <circle cx="81.79" cy="86.05" fill="#BDBDBD" r="4.4"/>
  <circle cx="67.31" cy="86.05" fill="#BDBDBD" r="4.4"/>
  <circle cx="52.34" cy="97.73" fill="#BDBDBD" r="4.4"/>
  <circle cx="81.79" cy="97.73" fill="#BDBDBD" r="4.4"/>
  <circle cx="67.31" cy="97.73" fill="#BDBDBD" r="4.4"/>
  <circle cx="52.34" cy="109.58" fill="#BDBDBD" r="4.4"/>
  <circle cx="81.79" cy="109.58" fill="#BDBDBD" r="4.4"/>
  <circle cx="67.31" cy="109.58" fill="#BDBDBD" r="4.4"/>
  <path d="m112.15 78.1h-16.43c-2.05 0-3.72-1.67-3.72-3.72s1.67-3.72 3.72-3.72h16.43c2.05 0 3.72 1.67 3.72 3.72 0.01 2.05-1.67 3.72-3.72 3.72z" fill="#90A4AE"/>
  <path d="m112.15 89.77h-16.43c-2.05 0-3.72-1.67-3.72-3.72s1.67-3.72 3.72-3.72h16.43c2.05 0 3.72 1.67 3.72 3.72 0.01 2.05-1.67 3.72-3.72 3.72z" fill="#90A4AE"/>
  <path d="m112.15 101.45h-16.43c-2.05 0-3.72-1.67-3.72-3.72s1.67-3.72 3.72-3.72h16.43c2.05 0 3.72 1.67 3.72 3.72 0.01 2.04-1.67 3.72-3.72 3.72z" fill="#90A4AE"/>
  <path d="m112.15 113.3h-16.43c-2.05 0-3.72-1.67-3.72-3.72s1.67-3.72 3.72-3.72h16.43c2.05 0 3.72 1.67 3.72 3.72 0.01 2.04-1.67 3.72-3.72 3.72z" fill="#90A4AE"/>
  <g opacity=".2">
    <circle cx="107.47" cy="52.97" r=".89"/>
    <circle cx="110" cy="52.97" r=".89"/>
    <circle cx="112.54" cy="52.97" r=".89"/>
    <circle cx="107.47" cy="63.11" r=".89"/>
    <circle cx="110" cy="63.11" r=".89"/>
    <circle cx="112.54" cy="63.11" r=".89"/>
    <circle cx="107.47" cy="55.51" r=".89"/>
    <circle cx="104.94" cy="55.51" r=".89"/>
    <circle cx="110" cy="55.51" r=".89"/>
    <circle cx="112.54" cy="55.51" r=".89"/>
    <circle cx="115.07" cy="55.51" r=".89"/>
    <circle cx="107.47" cy="58.04" r=".89"/>
    <circle cx="104.94" cy="58.04" r=".89"/>
    <circle cx="110" cy="58.04" r=".89"/>
    <circle cx="112.54" cy="58.04" r=".89"/>
    <circle cx="115.07" cy="58.04" r=".89"/>
    <circle cx="107.47" cy="60.58" r=".89"/>
    <circle cx="104.94" cy="60.58" r=".89"/>
    <circle cx="110" cy="60.58" r=".89"/>
    <circle cx="112.54" cy="60.58" r=".89"/>
    <circle cx="115.07" cy="60.58" r=".89"/>
  </g>
  <line fill="#757575" opacity=".7" stroke="#757575" stroke-linecap="round" stroke-linejoin="round" stroke-miterlimit="10" stroke-width="2" x1="52" x2="104" y1="16.11" y2="16.11"/>
  <line fill="#757575" opacity=".7" stroke="#757575" stroke-linecap="round" stroke-linejoin="round" stroke-miterlimit="10" stroke-width="2" x1="52" x2="104" y1="26.11" y2="26.11"/>
  <line fill="#757575" opacity=".7" stroke="#757575" stroke-linecap="round" stroke-linejoin="round" stroke-miterlimit="10" stroke-width="2" x1="52" x2="104" y1="36.11" y2="36.11"/>
</svg>

<svg style="enable-background:new 0 0 128 128;" viewBox="0 0 128 128" xmlns="http://www.w3.org/2000/svg" xmlns:xlink="http://www.w3.org/1999/xlink">
  <linearGradient id="SVGID_1_" gradientUnits="userSpaceOnUse" x1="78.055" x2="78.055" y1="4.8316" y2="57.046">
    <stop offset="0" style="stop-color:#BFBEBE"/>
    <stop offset="1" style="stop-color:#F2F2F2"/>
  </linearGradient>
  <path d="M108.39,48.19H47.72c-1.97,0-3.57-1.6-3.57-3.57V7.6c0-1.97,1.6-3.57,3.57-3.57h60.67 c1.97,0,3.57,1.6,3.57,3.57v37.02C111.96,46.59,110.36,48.19,108.39,48.19z" style="fill:url(#SVGID_1_);"/>
  <linearGradient id="SVGID_2_" gradientTransform="matrix(1 0 0 -1 0 128)" gradientUnits="userSpaceOnUse" x1="63.99" x2="63.99" y1="4.18" y2="84.26">
    <stop offset="0" style="stop-color:#212121"/>
    <stop offset="0.3525" style="stop-color:#3D3D3D"/>
    <stop offset="0.7585" style="stop-color:#575757"/>
    <stop offset="1" style="stop-color:#616161"/>
  </linearGradient>
  <path d="M114.88,123.82H13.1c-4.89,0-8.89-4-8.89-8.89v-62.3c0-4.89,4-8.89,8.89-8.89h101.78 c4.89,0,8.89,4,8.89,8.89v62.3C123.77,119.82,119.77,123.82,114.88,123.82z" style="fill:url(#SVGID_2_);"/>
  <linearGradient id="SVGID_3_" gradientTransform="matrix(1 0 0 -1 0 128)" gradientUnits="userSpaceOnUse" x1="63.99" x2="63.99" y1="4.18" y2="84.26">
    <stop offset="1.200100e-03" style="stop-color:#BFBEBE"/>
    <stop offset="0.2" style="stop-color:#212121;stop-opacity:0"/>
    <stop offset="0.8" style="stop-color:#212121;stop-opacity:0"/>
    <stop offset="1" style="stop-color:#BFBEBE"/>
  </linearGradient>
  <path d="M114.88,123.82H13.1c-4.89,0-8.89-4-8.89-8.89v-62.3c0-4.89,4-8.89,8.89-8.89 h101.78c4.89,0,8.89,4,8.89,8.89v62.3C123.77,119.82,119.77,123.82,114.88,123.82z" style="opacity:0.5;fill:url(#SVGID_3_);"/>
  <linearGradient id="SVGID_4_" gradientTransform="matrix(1 0 0 -1 0 128)" gradientUnits="userSpaceOnUse" x1="4.21" x2="123.77" y1="44.22" y2="44.22">
    <stop offset="1.200100e-03" style="stop-color:#BFBEBE"/>
    <stop offset="0.05" style="stop-color:#212121;stop-opacity:0"/>
    <stop offset="0.95" style="stop-color:#212121;stop-opacity:0"/>
    <stop offset="1" style="stop-color:#BFBEBE"/>
  </linearGradient>
  <path d="M114.88,123.82H13.1c-4.89,0-8.89-4-8.89-8.89v-62.3c0-4.89,4-8.89,8.89-8.89 h101.78c4.89,0,8.89,4,8.89,8.89v62.3C123.77,119.82,119.77,123.82,114.88,123.82z" style="opacity:0.2;fill:url(#SVGID_4_);"/>
  <linearGradient id="SVGID_5_" gradientTransform="matrix(1 0 0 -1 0 128)" gradientUnits="userSpaceOnUse" x1="27.98" x2="27.98" y1="13" y2="93">
    <stop offset="0" style="stop-color:#212121"/>
    <stop offset="0.716" style="stop-color:#4E4E4E"/>
    <stop offset="1" style="stop-color:#616161"/>
  </linearGradient>
  <path d="M27.98,115c-6.57,0-11.95-5.38-11.95-11.95v-56.1c0-6.57,5.38-11.95,11.95-11.95 s11.95,5.38,11.95,11.95v56.09C39.93,109.62,34.55,115,27.98,115z" style="fill:url(#SVGID_5_);"/>
  <linearGradient id="SVGID_6_" gradientTransform="matrix(1 0 0 -1 0 128)" gradientUnits="userSpaceOnUse" x1="73.935" x2="73.935" y1="64.12" y2="76.13">
    <stop offset="2.730400e-03" style="stop-color:#7CB342"/>
    <stop offset="1" style="stop-color:#558B2F"/>
  </linearGradient>
  <path d="M93.95,63.88H53.93c-3.3,0-6-2.7-6-6v-0.01c0-3.3,2.7-6,6-6h40.01c3.3,0,6,2.7,6,6v0.01 C99.94,61.18,97.25,63.88,93.95,63.88z" style="fill:url(#SVGID_6_);"/>
  <circle cx="52.34" cy="74.38" r="4.4" style="fill:#BFBEBE;"/>
  <circle cx="81.79" cy="74.38" r="4.4" style="fill:#BFBEBE;"/>
  <circle cx="67.31" cy="74.38" r="4.4" style="fill:#BFBEBE;"/>
  <circle cx="52.34" cy="86.05" r="4.4" style="fill:#BFBEBE;"/>
  <circle cx="81.79" cy="86.05" r="4.4" style="fill:#BFBEBE;"/>
  <circle cx="67.31" cy="86.05" r="4.4" style="fill:#BFBEBE;"/>
  <circle cx="52.34" cy="97.73" r="4.4" style="fill:#BFBEBE;"/>
  <circle cx="81.79" cy="97.73" r="4.4" style="fill:#BFBEBE;"/>
  <circle cx="67.31" cy="97.73" r="4.4" style="fill:#BFBEBE;"/>
  <circle cx="52.34" cy="109.58" r="4.4" style="fill:#BFBEBE;"/>
  <circle cx="81.79" cy="109.58" r="4.4" style="fill:#BFBEBE;"/>
  <circle cx="67.31" cy="109.58" r="4.4" style="fill:#BFBEBE;"/>
  <path d="M112.15,78.1H95.72c-2.05,0-3.72-1.67-3.72-3.72s1.67-3.72,3.72-3.72h16.43 c2.05,0,3.72,1.67,3.72,3.72C115.88,76.43,114.2,78.1,112.15,78.1z" style="fill:#90A4AE;"/>
  <path d="M112.15,89.77H95.72c-2.05,0-3.72-1.67-3.72-3.72s1.67-3.72,3.72-3.72h16.43 c2.05,0,3.72,1.67,3.72,3.72C115.88,88.1,114.2,89.77,112.15,89.77z" style="fill:#90A4AE;"/>
  <path d="M112.15,101.45H95.72c-2.05,0-3.72-1.67-3.72-3.72s1.67-3.72,3.72-3.72h16.43 c2.05,0,3.72,1.67,3.72,3.72C115.88,99.77,114.2,101.45,112.15,101.45z" style="fill:#90A4AE;"/>
  <path d="M112.15,113.3H95.72c-2.05,0-3.72-1.67-3.72-3.72s1.67-3.72,3.72-3.72h16.43 c2.05,0,3.72,1.67,3.72,3.72C115.88,111.62,114.2,113.3,112.15,113.3z" style="fill:#90A4AE;"/>
  <g style="opacity:0.2;">
    <circle cx="107.47" cy="52.97" r="0.89"/>
    <circle cx="110" cy="52.97" r="0.89"/>
    <circle cx="112.54" cy="52.97" r="0.89"/>
    <circle cx="107.47" cy="63.11" r="0.89"/>
    <circle cx="110" cy="63.11" r="0.89"/>
    <circle cx="112.54" cy="63.11" r="0.89"/>
    <circle cx="107.47" cy="55.51" r="0.89"/>
    <circle cx="104.94" cy="55.51" r="0.89"/>
    <circle cx="110" cy="55.51" r="0.89"/>
    <circle cx="112.54" cy="55.51" r="0.89"/>
    <circle cx="115.07" cy="55.51" r="0.89"/>
    <circle cx="107.47" cy="58.04" r="0.89"/>
    <circle cx="104.94" cy="58.04" r="0.89"/>
    <circle cx="110" cy="58.04" r="0.89"/>
    <circle cx="112.54" cy="58.04" r="0.89"/>
    <circle cx="115.07" cy="58.04" r="0.89"/>
    <circle cx="107.47" cy="60.58" r="0.89"/>
    <circle cx="104.94" cy="60.58" r="0.89"/>
    <circle cx="110" cy="60.58" r="0.89"/>
    <circle cx="112.54" cy="60.58" r="0.89"/>
    <circle cx="115.07" cy="60.58" r="0.89"/>
  </g>
  <line style="opacity:0.7;fill:none;stroke:#757575;stroke-width:2;stroke-linecap:round;stroke-linejoin:round;stroke-miterlimit:10;enable-background:new ;" x1="52" x2="104" y1="16.11" y2="16.11"/>
  <line style="opacity:0.7;fill:none;stroke:#757575;stroke-width:2;stroke-linecap:round;stroke-linejoin:round;stroke-miterlimit:10;enable-background:new ;" x1="52" x2="104" y1="26.11" y2="26.11"/>
  <line style="opacity:0.7;fill:none;stroke:#757575;stroke-width:2;stroke-linecap:round;stroke-linejoin:round;stroke-miterlimit:10;enable-background:new ;" x1="52" x2="104" y1="36.11" y2="36.11"/>
  <radialGradient id="SVGID_7_" cx="27.8942" cy="46.7462" gradientUnits="userSpaceOnUse" r="11.838">
    <stop offset="0.3755" style="stop-color:#212121;stop-opacity:0"/>
    <stop offset="0.9013" style="stop-color:#BFBEBE"/>
  </radialGradient>
  <path d="M39.94,46.96c0-6.6-5.35-11.96-11.96-11.96s-11.96,5.35-11.96,11.96" style="opacity:0.2;fill:url(#SVGID_7_);"/>
  <radialGradient id="SVGID_8_" cx="27.8942" cy="43.4488" gradientTransform="matrix(1 0 0 -1 0 146.7026)" gradientUnits="userSpaceOnUse" r="11.838">
    <stop offset="0.3755" style="stop-color:#212121;stop-opacity:0"/>
    <stop offset="0.9013" style="stop-color:#BFBEBE"/>
  </radialGradient>
  <path d="M39.94,103.04c0,6.6-5.35,11.96-11.96,11.96s-11.96-5.35-11.96-11.96" style="opacity:0.2;fill:url(#SVGID_8_);"/>
  <linearGradient id="SVGID_9_" gradientUnits="userSpaceOnUse" x1="16.03" x2="39.93" y1="74.995" y2="74.995">
    <stop offset="0.0448" style="stop-color:#BFBEBE"/>
    <stop offset="0.3218" style="stop-color:#212121;stop-opacity:0"/>
    <stop offset="0.7179" style="stop-color:#212121;stop-opacity:0"/>
    <stop offset="0.9428" style="stop-color:#BFBEBE"/>
  </linearGradient>
  <rect height="56.09" style="opacity:0.2;fill:url(#SVGID_9_);" width="23.9" x="16.03" y="46.95"/>
</svg>
